X:1
T:Title
%%score { ( 1 3 ) | ( 2 4 ) }
L:1/8
M:2/2
K:Eb
V:1 treble nm="Grand Piano"
V:3 treble 
V:2 bass 
V:4 bass 
V:1
 z4 z2[Q:1/4=106] EF | G2 G2 G2 G2 | G6 G[FA] | [GB]2 [GB]2 [GB]2 [GB]2 | [GB]6 [EG][GB] | %5
 [Ge]2 [Ge]2 [Ge]2 [Ad][Ac] | [GB]2 [GB]2 [GB]2 [FA]G | F2 F2 =A2 c2 | [DB]8 | E2 E>E E4 | %10
 z FGA B2 G2 | [DF]2 [DF]>[DF] [DF]4 | FG[DA][DB] [Dc]2 [DB]2 | B2 B>B B4 | ABcd e2 c2 | %15
 [GB]2 [GB][GB] [GB]2 [B,EG][G,E] |[M:7/8] [DF]- [DF]3 z z2 |] %17
V:2
 z4 z2 [E,G,][E,A,E] | [E,B,E]2 [E,B,E]2 [E,B,E]2 [E,B,E]2 | [E,B,E]6 [E,B,E][E,B,] | %3
 [E,E]2 [E,E]2 [E,E]2 [E,E]2 | [E,E]6 [E,B,][E,B,] | [E,B,]2 [E,B,]2 [E,B,]2 [E,B,][E,B,] | %6
 [E,E]2 [E,E]2 [E,E]2 [E,B,][E,B,E] | [F,B,D]2 [F,B,D]2 [F,CE]2 [F,=A,E]2 | B,4 z4 | %9
 [E,G,B,]2 [E,G,B,]>[E,G,B,] [E,G,B,]4 | [E,G,]2 [E,B,E][E,B,E] [E,G,E]2 [E,B,E]2 | %11
 [B,,B,]2 [B,,B,]>[B,,B,] [B,,B,]4 | [B,,B,]2 [B,,F,][B,,F,] [B,,A,]2 [B,,A,]2 | %13
 [E,G,E]2 [E,G,E]>[E,G,E] [E,G,E]4 | [A,CE]2 [A,EA][A,EA] [A,CA]2 [A,EA]2 | %15
 [E,E]2 [E,E][E,E] [E,E]2 E,E, |[M:7/8] z2 A,2 E,3 |] %17
V:3
 x8 | x8 | x8 | x8 | x8 | x8 | x8 | x8 | z4 .A,4 | x8 | .E4 z4 | x8 | .D4 z4 | x8 | x8 | x8 | %16
[M:7/8] B,2 z2 [G,B,E]3 |] %17
V:4
 x8 | x8 | x8 | x8 | x8 | x8 | x8 | x8 | .B,,8 | x8 | x8 | x8 | x8 | x8 | x8 | x8 | %16
[M:7/8] B,,- B,,3 z z2 |] %17

